Newaita/actions/32/draw-circle.svg

<svg height="32" viewBox="0 0 32 32" width="32" xmlns="http://www.w3.org/2000/svg"><path d="m15.875 4.21875c-6.59375 0-11.90625 5.3125-11.90625 11.90625 0 6.597656 5.3125 11.910156 11.90625 11.910156 6.597656 0 11.910156-5.3125 11.910156-11.910156 0-6.59375-5.3125-11.90625-11.910156-11.90625zm0 2.644531c5.132812 0 9.261719 4.132813 9.261719 9.261719 0 5.132812-4.128907 9.261719-9.261719 9.261719-5.128906 0-9.261719-4.128907-9.261719-9.261719 0-5.128906 4.132813-9.261719 9.261719-9.261719zm0 0" fill="#424242"/></svg>

<?xml version="1.0" encoding="UTF-8"?>
<svg xmlns="http://www.w3.org/2000/svg" xmlns:xlink="http://www.w3.org/1999/xlink" width="32px" height="32px" viewBox="0 0 32 32" version="1.1">
<g id="surface1">
<path style=" stroke:none;fill-rule:nonzero;fill:rgb(25.882354%,25.882354%,25.882354%);fill-opacity:1;" d="M 15.875 4.21875 C 9.28125 4.21875 3.96875 9.53125 3.96875 16.125 C 3.96875 22.722656 9.28125 28.035156 15.875 28.035156 C 22.472656 28.035156 27.785156 22.722656 27.785156 16.125 C 27.785156 9.53125 22.472656 4.21875 15.875 4.21875 Z M 15.875 6.863281 C 21.007812 6.863281 25.136719 10.996094 25.136719 16.125 C 25.136719 21.257812 21.007812 25.386719 15.875 25.386719 C 10.746094 25.386719 6.613281 21.257812 6.613281 16.125 C 6.613281 10.996094 10.746094 6.863281 15.875 6.863281 Z M 15.875 6.863281 "/>
</g>
</svg>
